flaticon/gastronomy/salmon.svg

<svg xmlns="http://www.w3.org/2000/svg" width="32" height="32" viewBox="0 0 24 24">
    <path d="M 22.644531 8.695312 C 22.21875 5.566406 20.058594 2.742188 16.714844 0.945312 C 16.558594 0.863281 16.402344 0.785156 16.242188 0.710938 C 15.214844 0.246094 11.695312 0.0390625 10.8125 0.0078125 L 10.765625 0.0078125 C 10.726562 0.00390625 10.691406 0 10.652344 0 C 10.628906 0 10.609375 0.00390625 10.585938 0.00390625 C 10.511719 0 10.445312 0 10.390625 0 L 9.828125 0.0078125 L 9.84375 0.0507812 C 9.816406 0.0546875 9.789062 0.0585938 9.765625 0.0625 C 9.523438 0.09375 9.28125 0.140625 9.039062 0.203125 C 9.03125 0.203125 9.023438 0.203125 9.015625 0.207031 C 8.765625 0.269531 8.519531 0.34375 8.273438 0.433594 C 6.21875 1.183594 4.507812 2.433594 3.289062 3.980469 L 3.289062 3.984375 L 3.21875 4.074219 C 3.167969 4.136719 3.125 4.207031 3.078125 4.273438 C 3 4.375 2.925781 4.476562 2.855469 4.582031 C 2.777344 4.699219 2.703125 4.816406 2.632812 4.933594 C 2.582031 5.015625 2.53125 5.09375 2.484375 5.175781 C 2.40625 5.3125 2.332031 5.457031 2.261719 5.597656 C 2.226562 5.664062 2.191406 5.730469 2.160156 5.796875 C 2.085938 5.949219 2.019531 6.105469 1.957031 6.261719 C 1.933594 6.324219 1.902344 6.382812 1.878906 6.445312 C 1.820312 6.605469 1.765625 6.765625 1.714844 6.929688 C 1.695312 6.988281 1.671875 7.050781 1.652344 7.113281 C 1.605469 7.273438 1.566406 7.4375 1.527344 7.601562 C 1.511719 7.667969 1.492188 7.730469 1.476562 7.796875 C 1.441406 7.964844 1.414062 8.132812 1.390625 8.300781 C 1.378906 8.363281 1.367188 8.425781 1.359375 8.492188 C 1.328125 8.71875 1.308594 8.945312 1.296875 9.175781 C 1.296875 9.179688 1.296875 9.1875 1.296875 9.191406 C 1.285156 9.40625 1.289062 9.621094 1.296875 9.839844 L 1.304688 10.375 L 1.328125 10.363281 C 1.449219 11.570312 1.839844 12.78125 2.476562 13.925781 C 2.875 14.648438 3.230469 15.328125 3.539062 15.960938 L 3.675781 16.242188 C 4.253906 17.445312 4.648438 18.449219 4.84375 19.226562 L 4.886719 19.394531 C 4.96875 19.746094 5.003906 20.039062 4.984375 20.265625 C 4.953125 20.667969 4.980469 21.003906 5.066406 21.300781 C 5.121094 21.492188 5.1875 21.671875 5.261719 21.847656 C 5.265625 21.855469 5.269531 21.867188 5.273438 21.878906 C 5.34375 22.042969 5.425781 22.199219 5.511719 22.351562 C 5.519531 22.363281 5.527344 22.378906 5.535156 22.394531 C 5.621094 22.539062 5.714844 22.671875 5.816406 22.796875 C 5.828125 22.816406 5.839844 22.832031 5.851562 22.847656 C 5.949219 22.96875 6.054688 23.082031 6.164062 23.183594 C 6.183594 23.199219 6.199219 23.214844 6.214844 23.230469 C 6.324219 23.328125 6.441406 23.421875 6.5625 23.5 C 6.582031 23.515625 6.597656 23.527344 6.617188 23.539062 C 6.738281 23.617188 6.867188 23.6875 6.996094 23.746094 C 7.015625 23.753906 7.039062 23.765625 7.058594 23.773438 C 7.191406 23.828125 7.324219 23.875 7.464844 23.910156 C 7.484375 23.914062 7.507812 23.921875 7.527344 23.925781 C 7.671875 23.957031 7.816406 23.980469 7.960938 23.988281 C 7.96875 23.992188 7.976562 23.992188 7.988281 23.992188 L 8.046875 23.992188 C 8.089844 23.996094 8.128906 24 8.171875 24 C 8.183594 24 8.199219 23.996094 8.214844 23.996094 L 10.011719 24 C 10.675781 24 11.21875 23.457031 11.21875 22.789062 L 11.21875 19.507812 C 11.21875 19.15625 11.296875 18.832031 11.445312 18.578125 C 11.882812 17.832031 11.808594 17.183594 11.71875 16.433594 C 11.664062 15.96875 11.601562 15.441406 11.648438 14.785156 C 11.671875 14.492188 11.933594 14.472656 11.988281 14.472656 C 12.054688 14.464844 12.238281 14.496094 12.28125 14.707031 C 12.292969 14.800781 12.304688 14.894531 12.308594 14.992188 L 11.882812 17.890625 L 11.488281 20.585938 L 11.355469 21.484375 C 11.335938 21.613281 11.328125 21.742188 11.328125 21.871094 C 11.328125 21.890625 11.328125 21.914062 11.328125 21.9375 C 11.328125 22.0625 11.339844 22.1875 11.363281 22.308594 C 11.363281 22.320312 11.367188 22.328125 11.367188 22.339844 C 11.441406 22.726562 11.601562 23.085938 11.847656 23.375 C 12.191406 23.777344 12.648438 24 13.136719 24 C 13.28125 24 13.421875 23.988281 13.558594 23.964844 L 15.769531 24 C 17.167969 24 18.21875 23.042969 18.722656 21.300781 C 18.792969 21.058594 18.820312 20.792969 18.804688 20.488281 C 18.757812 19.492188 19.746094 17.152344 21.511719 14.066406 C 22.480469 12.378906 22.882812 10.46875 22.644531 8.695312 Z M 17.582031 14.96875 C 16.019531 16 14.425781 16.707031 12.839844 17.070312 L 13.0625 15.550781 C 14.695312 15.335938 16.335938 14.910156 17.960938 14.28125 C 17.832031 14.507812 17.707031 14.738281 17.582031 14.96875 Z M 13.441406 23.144531 L 12.933594 23.136719 C 12.800781 23.101562 12.679688 23.03125 12.578125 22.933594 C 12.53125 22.894531 12.488281 22.84375 12.449219 22.792969 C 12.421875 22.757812 12.394531 22.714844 12.371094 22.675781 C 12.351562 22.640625 12.328125 22.609375 12.3125 22.574219 C 13.265625 22.410156 14.226562 22.128906 15.179688 21.734375 C 14.785156 22.53125 14.175781 23.035156 13.441406 23.144531 Z M 15.496094 20.527344 C 15.496094 20.585938 15.492188 20.636719 15.492188 20.6875 C 14.386719 21.207031 13.273438 21.558594 12.164062 21.75 C 12.167969 21.703125 12.167969 21.65625 12.175781 21.609375 L 12.34375 20.453125 C 13.449219 20.257812 14.554688 19.914062 15.644531 19.425781 C 15.539062 19.84375 15.480469 20.222656 15.496094 20.527344 Z M 15.992188 18.34375 C 14.832031 18.9375 13.652344 19.355469 12.46875 19.589844 L 12.710938 17.949219 C 14.097656 17.664062 15.484375 17.140625 16.855469 16.378906 C 16.527344 17.054688 16.226562 17.722656 15.992188 18.34375 Z M 11.859375 12.460938 C 11.824219 12.4375 11.785156 12.417969 11.746094 12.394531 C 11.710938 12.375 11.675781 12.351562 11.640625 12.332031 C 11.597656 12.3125 11.550781 12.292969 11.503906 12.273438 C 11.472656 12.257812 11.441406 12.242188 11.40625 12.230469 C 11.359375 12.210938 11.304688 12.195312 11.253906 12.179688 C 11.222656 12.171875 11.195312 12.160156 11.164062 12.152344 C 11.113281 12.140625 11.0625 12.132812 11.011719 12.125 C 10.976562 12.117188 10.941406 12.109375 10.910156 12.105469 C 10.867188 12.101562 10.828125 12.101562 10.785156 12.097656 C 10.742188 12.09375 10.695312 12.089844 10.652344 12.089844 C 10.605469 12.089844 10.5625 12.09375 10.519531 12.097656 C 10.476562 12.101562 10.4375 12.101562 10.394531 12.105469 C 10.359375 12.109375 10.328125 12.117188 10.292969 12.125 C 10.242188 12.132812 10.191406 12.140625 10.140625 12.152344 C 10.109375 12.160156 10.078125 12.171875 10.050781 12.179688 C 9.996094 12.195312 9.945312 12.210938 9.894531 12.230469 C 9.863281 12.242188 9.832031 12.257812 9.800781 12.269531 C 9.753906 12.289062 9.707031 12.308594 9.664062 12.332031 C 9.628906 12.351562 9.59375 12.371094 9.558594 12.390625 C 9.519531 12.414062 9.480469 12.4375 9.441406 12.464844 C 9.40625 12.488281 9.371094 12.515625 9.332031 12.542969 C 9.300781 12.566406 9.269531 12.589844 9.238281 12.617188 C 9.199219 12.648438 9.160156 12.679688 9.125 12.714844 C 9.097656 12.742188 9.070312 12.765625 9.042969 12.792969 C 9.007812 12.828125 8.972656 12.867188 8.933594 12.910156 C 8.910156 12.933594 8.890625 12.960938 8.867188 12.988281 C 8.847656 13.011719 8.828125 13.03125 8.8125 13.054688 C 8.664062 12.792969 8.582031 12.503906 8.582031 12.207031 C 8.582031 11.179688 9.511719 10.34375 10.652344 10.34375 C 11.792969 10.34375 12.722656 11.179688 12.722656 12.207031 C 12.722656 12.503906 12.640625 12.792969 12.492188 13.054688 C 12.476562 13.03125 12.457031 13.011719 12.4375 12.988281 C 12.414062 12.960938 12.390625 12.9375 12.367188 12.910156 C 12.332031 12.867188 12.296875 12.828125 12.257812 12.789062 C 12.234375 12.765625 12.207031 12.742188 12.179688 12.71875 C 12.144531 12.683594 12.105469 12.648438 12.066406 12.613281 C 12.035156 12.589844 12.003906 12.566406 11.972656 12.542969 C 11.9375 12.515625 11.898438 12.488281 11.859375 12.460938 Z M 8.265625 23.15625 C 8.238281 23.160156 8.214844 23.164062 8.171875 23.171875 C 7.429688 23.171875 6.789062 22.785156 6.339844 22.109375 C 7.191406 22.394531 8.058594 22.574219 8.9375 22.671875 C 8.902344 22.730469 8.867188 22.789062 8.824219 22.839844 C 8.695312 22.992188 8.539062 23.09375 8.375 23.140625 Z M 3.710938 14.472656 C 5.175781 15.027344 6.695312 15.398438 8.25 15.585938 L 8.492188 17.230469 C 6.742188 16.953125 5.316406 16.308594 4.371094 15.769531 C 4.15625 15.332031 3.933594 14.894531 3.710938 14.472656 Z M 8.613281 18.09375 L 8.855469 19.730469 C 7.746094 19.59375 6.652344 19.289062 5.59375 18.824219 C 5.4375 18.257812 5.203125 17.636719 4.929688 16.992188 C 6.109375 17.546875 7.363281 17.921875 8.613281 18.09375 Z M 8.980469 20.574219 L 9.132812 21.617188 C 9.144531 21.699219 9.144531 21.78125 9.148438 21.863281 C 8.027344 21.753906 6.925781 21.480469 5.855469 21.042969 C 5.804688 20.847656 5.789062 20.617188 5.808594 20.328125 C 5.820312 20.167969 5.8125 19.988281 5.792969 19.796875 C 6.832031 20.199219 7.898438 20.460938 8.980469 20.574219 Z M 3 5.96875 C 3.066406 5.839844 3.132812 5.710938 3.207031 5.582031 C 3.246094 5.511719 3.289062 5.445312 3.332031 5.378906 C 3.394531 5.269531 3.464844 5.164062 3.535156 5.058594 C 3.589844 4.972656 3.648438 4.890625 3.707031 4.808594 C 3.742188 4.761719 3.777344 4.714844 3.8125 4.664062 C 6.128906 3.757812 8.285156 3.378906 10.238281 3.324219 L 10.238281 4.59375 C 8.007812 4.652344 5.523438 5.128906 2.851562 6.277344 C 2.875 6.230469 2.894531 6.179688 2.914062 6.136719 C 2.941406 6.078125 2.972656 6.023438 3 5.96875 Z M 11.066406 5.421875 C 14.539062 5.492188 17.300781 6.585938 19.050781 7.53125 C 19.0625 7.5625 19.070312 7.589844 19.082031 7.621094 C 19.089844 7.660156 19.105469 7.695312 19.117188 7.730469 C 19.152344 7.863281 19.183594 7.996094 19.214844 8.128906 C 19.222656 8.175781 19.238281 8.21875 19.246094 8.265625 C 19.285156 8.445312 19.316406 8.625 19.339844 8.804688 C 19.339844 8.804688 19.339844 8.808594 19.339844 8.808594 C 19.359375 8.9375 19.367188 9.070312 19.375 9.203125 C 17.65625 8.289062 14.757812 7.121094 11.066406 7.050781 Z M 11.066406 4.59375 L 11.066406 3.320312 C 13.652344 3.375 15.84375 3.988281 17.511719 4.683594 C 17.945312 5.226562 18.296875 5.789062 18.582031 6.367188 C 16.753906 5.5 14.179688 4.652344 11.066406 4.59375 Z M 2.164062 8.753906 C 2.175781 8.679688 2.179688 8.601562 2.191406 8.523438 C 2.210938 8.367188 2.242188 8.214844 2.273438 8.058594 C 2.28125 8.011719 2.289062 7.964844 2.296875 7.917969 C 2.339844 7.734375 2.386719 7.550781 2.441406 7.371094 C 5.277344 6.03125 7.902344 5.488281 10.238281 5.421875 L 10.238281 7.054688 C 7.816406 7.117188 5.082031 7.65625 2.140625 9.039062 C 2.148438 8.945312 2.15625 8.847656 2.164062 8.753906 Z M 18.589844 13.128906 C 16.78125 13.921875 14.945312 14.453125 13.121094 14.707031 C 13.121094 14.699219 13.117188 14.691406 13.117188 14.683594 C 13.117188 14.671875 13.117188 14.660156 13.117188 14.652344 C 13.113281 14.640625 13.109375 14.628906 13.109375 14.617188 C 13.078125 14.351562 13.019531 14.101562 12.933594 13.863281 C 13.332031 13.390625 13.546875 12.8125 13.546875 12.207031 C 13.546875 10.855469 12.46875 9.734375 11.066406 9.546875 L 11.066406 7.878906 C 14.890625 7.957031 17.816406 9.261719 19.382812 10.152344 C 19.320312 11.152344 19.054688 12.167969 18.589844 13.128906 Z M 11.066406 2.492188 L 11.066406 0.851562 C 11.835938 0.910156 12.636719 1.113281 13.417969 1.464844 C 13.5625 1.53125 13.703125 1.601562 13.84375 1.675781 C 14.742188 2.160156 15.546875 2.722656 16.25 3.34375 C 14.769531 2.878906 13.027344 2.53125 11.066406 2.492188 Z M 8.558594 1.210938 C 8.992188 1.054688 9.4375 0.941406 9.875 0.882812 C 9.878906 0.882812 9.878906 0.882812 9.882812 0.882812 C 10 0.867188 10.121094 0.859375 10.238281 0.851562 L 10.238281 2.496094 C 8.605469 2.539062 6.835938 2.804688 4.953125 3.394531 C 5.949219 2.46875 7.167969 1.71875 8.558594 1.210938 Z M 2.132812 9.964844 C 5.085938 8.515625 7.824219 7.945312 10.238281 7.882812 L 10.238281 9.546875 C 8.835938 9.734375 7.753906 10.855469 7.753906 12.207031 C 7.753906 12.8125 7.972656 13.390625 8.371094 13.863281 C 8.273438 14.136719 8.207031 14.433594 8.179688 14.742188 C 6.425781 14.515625 4.71875 14.042969 3.097656 13.332031 C 2.523438 12.238281 2.195312 11.09375 2.132812 9.964844 Z M 10.824219 14.722656 C 10.769531 15.460938 10.839844 16.054688 10.898438 16.53125 C 10.976562 17.207031 11.027344 17.652344 10.734375 18.160156 C 10.511719 18.539062 10.390625 19.007812 10.390625 19.507812 L 10.390625 22.789062 C 10.390625 23 10.222656 23.171875 10.011719 23.171875 L 9.609375 23.171875 C 9.921875 22.695312 10.046875 22.085938 9.949219 21.492188 L 9.828125 20.648438 L 9.34375 17.34375 L 9.097656 15.675781 L 8.996094 14.992188 C 9.003906 14.59375 9.097656 14.222656 9.257812 13.90625 C 9.28125 13.859375 9.304688 13.808594 9.332031 13.765625 C 9.359375 13.714844 9.390625 13.671875 9.421875 13.628906 C 9.472656 13.558594 9.519531 13.496094 9.574219 13.4375 C 9.609375 13.398438 9.644531 13.359375 9.683594 13.324219 C 9.722656 13.289062 9.761719 13.257812 9.800781 13.226562 C 9.84375 13.191406 9.890625 13.160156 9.9375 13.132812 C 9.976562 13.109375 10.015625 13.082031 10.058594 13.0625 C 10.132812 13.027344 10.207031 12.996094 10.28125 12.976562 C 10.308594 12.964844 10.335938 12.960938 10.363281 12.953125 C 10.457031 12.933594 10.554688 12.917969 10.652344 12.917969 C 10.75 12.917969 10.847656 12.933594 10.941406 12.953125 C 10.96875 12.960938 10.996094 12.964844 11.023438 12.972656 C 11.101562 12.996094 11.175781 13.027344 11.25 13.0625 C 11.289062 13.082031 11.328125 13.105469 11.363281 13.128906 C 11.414062 13.160156 11.460938 13.191406 11.507812 13.226562 C 11.546875 13.257812 11.582031 13.289062 11.621094 13.320312 C 11.660156 13.359375 11.703125 13.402344 11.738281 13.445312 C 11.789062 13.5 11.832031 13.558594 11.878906 13.617188 C 11.886719 13.628906 11.890625 13.640625 11.898438 13.652344 C 11.390625 13.695312 10.875 14.058594 10.824219 14.722656 Z M 20.796875 13.65625 C 19.472656 15.964844 17.90625 19.035156 17.976562 20.527344 C 17.988281 20.738281 17.96875 20.917969 17.925781 21.070312 C 17.648438 22.027344 17.050781 23.171875 15.777344 23.171875 L 15.160156 23.164062 C 15.640625 22.703125 16.015625 22.070312 16.238281 21.300781 C 16.308594 21.058594 16.335938 20.792969 16.320312 20.488281 C 16.300781 20.082031 16.46875 19.421875 16.792969 18.574219 C 16.832031 18.480469 16.871094 18.382812 16.910156 18.285156 C 16.96875 18.140625 17.03125 17.992188 17.097656 17.835938 C 17.152344 17.710938 17.207031 17.585938 17.269531 17.453125 C 17.308594 17.367188 17.347656 17.277344 17.390625 17.183594 C 17.496094 16.960938 17.609375 16.726562 17.730469 16.488281 C 17.753906 16.4375 17.777344 16.390625 17.804688 16.339844 C 17.941406 16.066406 18.089844 15.785156 18.246094 15.492188 C 18.488281 15.035156 18.75 14.5625 19.03125 14.066406 C 19.65625 12.976562 20.039062 11.796875 20.171875 10.617188 L 20.203125 10.636719 L 20.21875 10.09375 C 20.21875 10.042969 20.21875 9.996094 20.222656 9.945312 L 20.222656 9.929688 C 20.222656 9.914062 20.222656 9.902344 20.222656 9.886719 C 20.226562 9.691406 20.226562 9.5 20.214844 9.304688 C 20.207031 9.097656 20.1875 8.894531 20.160156 8.695312 C 20.132812 8.496094 20.097656 8.296875 20.058594 8.097656 C 20.042969 8.027344 20.023438 7.960938 20.007812 7.890625 C 19.976562 7.761719 19.949219 7.636719 19.914062 7.507812 C 19.890625 7.4375 19.867188 7.371094 19.847656 7.300781 C 19.804688 7.171875 19.765625 7.042969 19.722656 6.917969 C 19.703125 6.867188 19.679688 6.816406 19.660156 6.765625 C 19.605469 6.617188 19.546875 6.46875 19.480469 6.320312 C 19.472656 6.296875 19.460938 6.277344 19.449219 6.253906 C 18.539062 4.242188 16.875 2.472656 14.636719 1.175781 C 15.207031 1.261719 15.667969 1.359375 15.902344 1.464844 C 16.042969 1.53125 16.1875 1.601562 16.324219 1.675781 C 19.429688 3.34375 21.433594 5.941406 21.824219 8.804688 C 22.039062 10.402344 21.671875 12.125 20.796875 13.65625 Z M 20.796875 13.65625"/>
</svg>

<svg xmlns="http://www.w3.org/2000/svg" width="32" height="32" viewBox="0 0 24 24">
    <path d="M22.645 8.695c-.426-3.129-2.586-5.953-5.93-7.75-.156-.082-.313-.16-.473-.234-1.027-.465-4.547-.672-5.43-.703h-.046C10.726.004 10.69 0 10.652 0c-.023 0-.043.004-.066.004C10.512 0 10.446 0 10.39 0l-.563.008.016.043-.078.012a5.956 5.956 0 0 0-.727.14c-.008 0-.016 0-.023.004a7.36 7.36 0 0 0-.743.227c-2.054.75-3.765 2-4.984 3.546v.004l-.07.09c-.051.063-.094.133-.14.2a5.6 5.6 0 0 0-.224.308 8.747 8.747 0 0 0-.222.352c-.051.082-.102.16-.149.242a8.687 8.687 0 0 0-.222.422c-.035.066-.07.132-.102.199-.074.152-.14.308-.203.465-.023.062-.055.12-.078.183-.059.16-.113.32-.164.485-.02.058-.043.12-.063.183a9.92 9.92 0 0 0-.125.489c-.015.066-.035.128-.05.195a7.542 7.542 0 0 0-.086.504 2.796 2.796 0 0 0-.032.191c-.03.227-.05.453-.062.684v.015a7.18 7.18 0 0 0 0 .649l.008.535.023-.012c.121 1.207.512 2.418 1.149 3.563.398.722.753 1.402 1.062 2.035l.137.281c.578 1.203.972 2.207 1.168 2.985l.043.168c.082.351.117.644.097.87-.03.403-.004.739.082 1.036.055.191.122.37.196.547a4.86 4.86 0 0 0 .273.547c.086.144.18.277.281.402.012.02.024.035.036.05a3.21 3.21 0 0 0 .71.653c.02.016.036.027.055.04.121.077.25.148.38.206.019.008.042.02.062.027.132.055.265.102.406.137.02.004.043.012.062.016.145.031.29.054.434.062.008.004.016.004.027.004h.059c.043.004.082.008.125.008.012 0 .027-.004.043-.004l1.797.004c.664 0 1.207-.543 1.207-1.21v-3.282c0-.352.078-.676.226-.93.438-.746.364-1.394.274-2.144-.055-.465-.117-.993-.07-1.649.023-.293.285-.312.34-.312a.277.277 0 0 1 .292.234c.012.094.024.188.028.285l-.426 2.899-.395 2.695-.133.898c-.02.13-.027.258-.027.387v.067c0 .125.012.25.035.37 0 .012.004.02.004.032.074.387.235.746.48 1.035.344.402.801.625 1.29.625.144 0 .285-.012.422-.035l2.21.035c1.399 0 2.45-.957 2.954-2.7.07-.241.097-.507.082-.812-.047-.996.941-3.336 2.707-6.422.968-1.687 1.37-3.597 1.133-5.37zm-5.063 6.274C16.02 16 14.426 16.707 12.84 17.07l.223-1.52a21.263 21.263 0 0 0 4.898-1.269c-.129.227-.254.457-.379.688zm-4.14 8.176l-.508-.008a.814.814 0 0 1-.356-.203.89.89 0 0 1-.129-.141 1.222 1.222 0 0 1-.078-.117c-.02-.035-.043-.067-.059-.102a13.49 13.49 0 0 0 2.868-.84c-.395.797-1.004 1.301-1.739 1.41zm2.054-2.618c0 .059-.004.11-.004.16a13.02 13.02 0 0 1-3.328 1.063c.004-.047.004-.094.012-.14l.168-1.157c1.105-.195 2.21-.539 3.3-1.027-.105.418-.164.797-.148 1.101zm.496-2.183a13.492 13.492 0 0 1-3.523 1.246l.242-1.64c1.387-.286 2.773-.81 4.144-1.571a24.04 24.04 0 0 0-.863 1.965zM11.86 12.46c-.035-.024-.074-.043-.113-.066l-.105-.063c-.043-.02-.09-.039-.137-.059a.738.738 0 0 0-.098-.043c-.047-.02-.101-.035-.152-.05-.031-.008-.059-.02-.09-.028a2.077 2.077 0 0 0-.152-.027c-.035-.008-.07-.016-.102-.02-.043-.003-.082-.003-.125-.007a1.514 1.514 0 0 0-.133-.008c-.047 0-.09.004-.132.008-.043.004-.082.004-.125.007-.036.004-.067.012-.102.02-.05.008-.102.016-.152.027-.032.008-.063.02-.09.028a1.828 1.828 0 0 0-.156.05c-.032.012-.063.028-.094.04-.047.02-.094.039-.137.062l-.105.059c-.04.023-.079.046-.118.074-.035.023-.07.05-.109.078a1.556 1.556 0 0 0-.094.074c-.039.031-.078.063-.113.098-.027.027-.055.05-.082.078-.035.035-.07.074-.11.117-.023.024-.042.05-.066.078-.02.024-.039.043-.055.067a1.716 1.716 0 0 1-.23-.848c0-1.027.93-1.863 2.07-1.863 1.141 0 2.07.836 2.07 1.863 0 .297-.081.586-.23.848-.015-.024-.035-.043-.055-.067l-.07-.078a1.61 1.61 0 0 0-.11-.12c-.023-.024-.05-.048-.077-.071-.035-.035-.075-.07-.114-.106l-.093-.07a2.844 2.844 0 0 0-.114-.082zM8.266 23.156l-.094.016c-.742 0-1.383-.387-1.832-1.063.851.286 1.719.465 2.598.563-.036.058-.07.117-.114.168a.927.927 0 0 1-.449.3zM3.71 14.473c1.465.554 2.984.925 4.539 1.113l.242 1.644a12.296 12.296 0 0 1-4.12-1.46 50.243 50.243 0 0 0-.661-1.297zm4.902 3.62l.242 1.637a11.646 11.646 0 0 1-3.261-.906 15.137 15.137 0 0 0-.664-1.832c1.18.555 2.433.93 3.683 1.102zm.367 2.481l.153 1.043c.012.082.012.164.015.246a11.67 11.67 0 0 1-3.293-.82 2.237 2.237 0 0 1-.046-.715c.011-.16.003-.34-.016-.531 1.039.402 2.105.664 3.187.777zM3 5.97c.066-.13.133-.258.207-.387.04-.07.082-.137.125-.203.063-.11.133-.215.203-.32.055-.086.113-.168.172-.25.035-.047.07-.094.106-.145 2.316-.906 4.472-1.285 6.425-1.34v1.27c-2.23.058-4.715.535-7.386 1.683.023-.047.043-.097.062-.14.027-.059.059-.114.086-.168zm8.066-.547a17.624 17.624 0 0 1 7.985 2.11c.012.03.02.058.031.09.008.038.023.073.035.108.035.133.067.266.098.399.008.047.023.09.031.137.04.18.07.359.094.539v.004c.02.129.027.261.035.394a18.568 18.568 0 0 0-8.309-2.152zm0-.828V3.32c2.586.055 4.778.668 6.446 1.364a9.229 9.229 0 0 1 1.07 1.683 18.379 18.379 0 0 0-7.516-1.773zm-8.902 4.16c.012-.074.016-.152.027-.23.02-.157.051-.31.082-.465l.024-.141c.043-.184.09-.367.144-.547 2.836-1.34 5.461-1.883 7.797-1.95v1.634c-2.422.062-5.156.601-8.097 1.984l.023-.285zm16.426 4.375c-1.809.793-3.645 1.324-5.469 1.578 0-.008-.004-.016-.004-.023v-.032a.114.114 0 0 1-.008-.035 3.37 3.37 0 0 0-.175-.754c.398-.472.613-1.05.613-1.656 0-1.352-1.078-2.473-2.48-2.66V7.879a17.716 17.716 0 0 1 8.316 2.273 8.003 8.003 0 0 1-.793 2.977zM11.066 2.492V.852a7.065 7.065 0 0 1 2.778.824 12.813 12.813 0 0 1 2.406 1.668 18.501 18.501 0 0 0-5.184-.852zM8.56 1.211c.433-.156.879-.27 1.316-.328h.008c.117-.016.238-.024.355-.031v1.644a19.317 19.317 0 0 0-5.285.899A10.64 10.64 0 0 1 8.56 1.21zM2.133 9.965c2.953-1.45 5.691-2.02 8.105-2.082v1.664c-1.402.187-2.484 1.308-2.484 2.66 0 .605.219 1.184.617 1.656-.098.274-.164.57-.191.88-1.754-.227-3.461-.7-5.082-1.411-.575-1.094-.903-2.238-.965-3.367zm8.691 4.758c-.054.738.016 1.332.074 1.808.079.676.13 1.121-.164 1.63a2.668 2.668 0 0 0-.343 1.347v3.281a.38.38 0 0 1-.38.383H9.61a2.381 2.381 0 0 0 .34-1.68l-.12-.844-.485-3.304-.246-1.668-.102-.684c.008-.398.102-.77.262-1.086.023-.047.047-.097.074-.14.027-.051.059-.094.09-.137.05-.07.098-.133.152-.191.035-.04.07-.079.11-.114.039-.035.078-.066.117-.097a1.06 1.06 0 0 1 .136-.094c.04-.024.079-.051.122-.07.074-.036.148-.067.222-.086.028-.012.055-.016.082-.024.094-.02.192-.035.29-.035.097 0 .195.016.288.035.028.008.055.012.082.02.079.023.153.054.227.09.04.019.078.042.113.066.051.031.098.062.145.098.039.03.074.062.113.093.04.04.082.082.117.125.051.055.094.114.14.172.009.012.013.024.02.035-.507.043-1.023.407-1.074 1.07zm9.973-1.067c-1.324 2.309-2.89 5.38-2.82 6.871.011.211-.008.391-.051.543-.278.957-.875 2.102-2.149 2.102l-.617-.008c.48-.46.856-1.094 1.078-1.863.07-.242.098-.508.082-.813-.02-.406.149-1.066.473-1.914l.117-.289c.059-.144.121-.293.188-.45.054-.124.109-.25.172-.382l.12-.27a27.81 27.81 0 0 1 .415-.843 57.406 57.406 0 0 1 1.227-2.273 8.97 8.97 0 0 0 1.14-3.45l.031.02.016-.543c0-.051 0-.098.004-.149V9.93v-.043a7.232 7.232 0 0 0-.008-.582 6.195 6.195 0 0 0-.055-.61c-.027-.199-.062-.398-.101-.597-.016-.07-.036-.137-.051-.207-.031-.13-.059-.254-.094-.383-.023-.07-.047-.137-.066-.207-.043-.13-.082-.258-.125-.383l-.063-.152a7.075 7.075 0 0 0-.18-.446c-.007-.023-.02-.043-.03-.066-.91-2.012-2.575-3.781-4.813-5.078.57.086 1.031.183 1.265.289.141.066.286.137.422.21 3.106 1.669 5.11 4.266 5.5 7.13.215 1.597-.152 3.32-1.027 4.851zm0 0"/>
</svg>
